X: 7829
T: Comin' Thro' The Rye
R: slide
M: 12/8
K: Dmajor
ABA A2 f e2 d e2 F|AFA BAB d2 e dcB|
ABA a2 f e2 d e2 F|1 ~A3 BAB d2 e dcB:|2 ~A3 BAB d3 d(3efg||
a2 f def e2 d e2 f|a2 f dfa ~b3 baf|
a2 f g2 e fed e2 F|1 ~A3 BAB d3 d(3efg:|2 ~A3 BAF D3 D3||

